!!!!SEGMENT: pl-kk--kk-i-11--001-006_anonim--missa-o-admirabile-comercium-agnus-dei.krn
!!!cenid: 16xx:1237
!!!COM: Anonim
!!!COM-rismid: pe30004985
!!!CDT:
!!!CNT:
!!!OPR: Missa o Admirabile Comercium
!!!OTL: Agnus Dei
!!!OMV: 006
!!!PDT:
!!!AGN: Sacred; Mass
!!!SMS-siglum: PL-Kk
!!!SMS-shelfmark: Kk.I.11
!!!SMS-shelfwork: 001-006 M
!!!SMS-variant:
!!!SMS-altvar:
!!!NIFC-rismid: 1001154125
!!!URL-scan: http://repozytorium.nifc.pl/skany/pl-kk-nut--i-11
!!!ONB-nifc: UWAGA: części Mszy: 1. Kyrie, 2. Et in terra, 3. Patrem, 4. Sanctus, 5. Benedictus, 6. Agnus Dei. S (skan 0004-0008), T (0013-0016).
**kern	**text	**kern	**text
*part2	*part2	*part1	*part1
*staff2	*staff2	*staff1	*staff1
*I"[Tenor]	*	*I"[Cantus]	*
*I'T	*	*I'S	*
*clefC4	*	*clefG2	*
*k[]	*	*k[]	*
*G:	*	*G:	*
*M2/1	*	*M2/1	*
*met(c|)	*	*met(c|)	*
*all\right	*	*all\right	*
*2\right	*	*2\right	*
=1-	=1-	=1-	=1-
!LO:TX:t=partia S pochodzi z Missa O admirabile commercium G. P. da Palestriny, partia T lokalnego autorstwa (?) - stąd mogą pochodzić liczne niezgodności między głosami i różne błędy	!	!	!
!	!	!LO:TX:t=P:problem:kreska pseudotaktowa	!
2.G	A-	0r	.
!LO:TX:t=P:problem:kreska pseudotaktowa	!	!	!
4A	.	.	.
4B	.	.	.
4c	.	.	.
4d	.	.	.
4B	.	.	.
=2-	=2-	=2	=2-
2G	.	00dd	A-
!LO:TX:t=P:problem:kreska pseudotaktowa	!	!	!
2A/	.	.	.
1B	.	.	.
=3-	=3-	=3-	=3-
2G	.	.	.
4B	.	.	.
!LO:TX:t=P:problem:kreska pseudotaktowa	!	!	!
4A	.	.	.
4G	.	.	.
4A	.	.	.
4B	.	.	.
4c	.	.	.
=4-	=4-	=4-	=4-
2d	.	0dd	-gnus
1d	-gnuſ	.	.
1B	De-	.	.
=5-	=5-	=5-	=5-
*	*	*lig	*
!	!	!LO:TX:t=2	!
.	.	0dd	De-
!LO:TX:t=P:problem:kreska pseudotaktowa	!	!	!
2A/	.	.	.
1G	-i	.	.
=6-	=6-	=6-	=6-
!	!	!LO:TX:t=2	!
2E	A-	0ee	.
*	*	*Xlig	*
1A	-gnuſ	.	.
!LO:TX:t=P:problem:kreska pseudotaktowa	!	!	!
2A/	De-	.	.
=7	=7-	=7-	=7-
!LO:TX:t=P:problem:kreska pseudotaktowa	!	!	!
!LO:TX:a:t=inna wartość	!	!LO:TX:t=P:problem:kreska pseudotaktowa	!
2A/	-i	1dd	-i
0r	.	.	.
*	*	*lig	*ij
.	.	1g	A-
=8-	=8-	=8-	=8-
.	.	1.cc	.
*	*	*Xlig	*
1r	.	.	.
!	!	!LO:TX:t=P:problem:kreska pseudotaktowa	!
2r	.	2b	.
=9-	=9-	=9	=9-
!LO:TX:t=P:problem:kreska pseudotaktowa	!	!	!
!LO:TX:a:t=inna wartość	!	!	!
2c	Qui	2cc	.
4B	.	2ee	-gnus
4A	.	.	.
2G	tol-	1dd	De-
!LO:TX:t=P:problem:kreska pseudotaktowa	!	!	!
1G	-liſ	.	.
=10	=10-	=10-	=10-
!	!	!LO:TX:t=P:problem:kreska pseudotaktowa	!
.	.	0.cc	-i
*	*	*	*Xij
2r	.	.	.
1c	pec-	.	.
=11-	=11-	=11	=11-
!LO:LB:g=original	!	!	!
!LO:TX:t=P:problem:kreska pseudotaktowa	!	!	!
2G	-ca-	.	.
1c	-ta	.	.
.	.	0r	.
1B	mun-	.	.
=12-	=12-	=12-	=12-
.	.	.	.
!LO:TX:t=P:problem:kreska pseudotaktowa	!	!	!
1G	-di	.	.
.	.	2r	.
!	!	!LO:LB:g=original	!
!	!	!LO:TX:t=P:problem:kreska pseudotaktowa	!
0r	.	2ee	qui
=13-	=13-	=13	=13-
.	.	1ee	tol-
.	.	2dd	-lis
!	!	!LO:TX:t=P:problem:kreska pseudotaktowa	!
1r	.	2ee	pec-
=14-	=14-	=14	=14-
.	.	2cc	-ca-
!	!	!LO:TX:t=P:problem:kreska pseudotaktowa	!
2r	.	2dd	-ta
!LO:TX:t=P:problem:kreska pseudotaktowa	!	!	!
2c	Qui	4ee	mu(n)-
.	.	4ff	.
1G	tol-	4gg	.
!	!	!LO:TX:t=P:problem:kreska pseudotaktowa	!
.	.	4ff	.
=15-	=15-	=15	=15-
.	.	4ee	.
.	.	4dd	.
!	!	!LO:TX:t=P:problem:kreska pseudotaktowa	!
2G	-liſ	2cc	.
1c	pec-	2dd	.
!	!	!LO:TX:t=P:problem:kreska pseudotaktowa	!
.	.	2g	-di
=16-	=16-	=16	=16-
!LO:TX:t=P:problem:kreska pseudotaktowa	!	!	!
2B	-(ca)-	1r	.
2G	-ta	.	.
2c	Mun-	2r	.
!LO:TX:t=P:problem:kreska pseudotaktowa	!	!LO:TX:t=P:problem:kreska pseudotaktowa	!
1c	-di	2g	qui
=17	=17-	=17	=17-
.	.	1g	tol-
00r	.	.	.
.	.	1.dd	-lis
=18-	=18-	=18-	=18-
.	.	.	.
!	!	!LO:LB:g=original	!
!	!	!LO:TX:t=P:problem:kreska pseudotaktowa	!
!	!	!LO:SIC:custos:cc	!
.	.	2dd	pec-
.	.	2cc	-ca-
!	!	!LO:TX:t=P:problem:kreska pseudotaktowa	!
.	.	2cc	-ta
=19-	=19-	=19	=19-
.	.	4ee	mun-
.	.	4dd	.
0r	.	4gg	.
!	!	!LO:TX:t=P:problem:kreska pseudotaktowa	!
.	.	4ff	.
.	.	4ee	.
.	.	4dd	.
.	.	1cc	.
=20-	=20-	=20-	=20-
.	.	.	.
!	!	!LO:TX:t=P:problem:kreska pseudotaktowa	!
2r	.	2b	.
!LO:TX:t=P:problem:kreska pseudotaktowa	!	!LO:TX:t=P:problem:kreska pseudotaktowa	!
2A/	Qui	1cc	-di
1c	tol-	.	.
=21-	=21-	=21	=21-
.	.	00r	.
2c	-liſ	.	.
!LO:TX:t=P:problem:kreska pseudotaktowa	!	!	!
2c	pec-	.	.
2d	-(ca)-	.	.
=22-	=22-	=22-	=22-
2B-X	.	.	.
2A/	-ta	.	.
4F	mun-	.	.
!LO:TX:t=P:problem:kreska pseudotaktowa	!	!	!
4G	.	.	.
4A	.	.	.
4Bn	.	.	.
=23-	=23-	=23-	=23-
!	!	!LO:TX:t=P:problem:kreska pseudotaktowa	!
4c	.	0r	.
4A	.	.	.
!LO:TX:t=P:problem:kreska pseudotaktowa	!	!	!
1d	.	.	.
!LO:TX:t=P:problem:kreska pseudotaktowa	!	!	!
1B	-di	.	.
=24	=24-	=24	=24-
.	.	2r	.
!	!	!LO:TX:t=P:problem:kreska pseudotaktowa	!
2r	.	(<2.gg	mi-
2ryy	.	.	.
.	.	4ff)	.
!LO:LB:g=original	!	!	!
1A	pec-	4ee	.
!	!	!LO:TX:t=P:problem:kreska pseudotaktowa	!
.	.	4dd	.
=25-	=25-	=25	=25-
.	.	2cc	.
!LO:TX:t=P:problem:kreska pseudotaktowa	!	!LO:TX:t=P:problem:kreska pseudotaktowa	!
2B	.	2dd	-ſe-
4G\	-ca-	2dd	-re-
4A	.	.	.
!	!	!LO:TX:t=P:problem:kreska pseudotaktowa	!
4B	.	2g	-re
8cL	.	.	.
8dJ	.	.	.
=26-	=26-	=26	=26-
!LO:TX:t=P:problem:kreska pseudotaktowa	!	!	!
00c	.	2.cc	no-
!	!	!LO:LB:g=original	!
!	!	!LO:TX:t=P:problem:kreska pseudotaktowa	!
.	.	4dd	.
.	.	1ee	.
=27	=27-	=27-	=27-
!	!	!LO:TX:t=P:problem:kreska pseudotaktowa	!
.	.	1ee	-bis
.	.	1r	.
=28-	=28-	=28-	=28-
2.c	.	2r	.
.	.	1ff	mi-
4c	-ta	.	.
1B	mun-	.	.
!	!	!LO:TX:t=P:problem:kreska pseudotaktowa	!
.	.	2cc	-ſe-
=29-	=29-	=29	=29-
0c	-di	2.cc	-re-
!	!	!LO:TX:t=P:problem:kreska pseudotaktowa	!
.	.	4dd	.
.	.	4ee	.
.	.	4ff	.
.	.	2.ee	.
=30-	=30-	=30-	=30-
00r	.	.	.
.	.	4dd	.
.	.	1dd	.
!	!	!LO:TX:t=P:problem:kreska pseudotaktowa	!
.	.	2cc	-re
=31-	=31-	=31	=31-
.	.	2.ee	no-
.	.	4dd	.
!	!	!LO:TX:t=P:problem:kreska pseudotaktowa	!
.	.	1cc	.
=32-	=32-	=32	=32-
0r	.	2.b/	.
!	!	!LO:LB:g=original	!
!	!	!LO:TX:t=P:problem:kreska pseudotaktowa	!
!	!	!LO:SIC:custos:dd	!
.	.	4cc	.
!	!	!LO:TX:t=P:problem:kreska pseudotaktowa	!
.	.	0dd	-bis
=33-	=33-	=33	=33-
2r	.	.	.
1B	Mi-	.	.
.	.	0r	.
!LO:TX:t=P:problem:kreska pseudotaktowa	!	!	!
2A/	-ſe-	.	.
=34	=34-	=34-	=34-
1A	-re-	.	.
!LO:TX:t=P:problem:kreska pseudotaktowa	!	!	!
1c	-re	2r	.
.	.	1gg	mi-
=35	=35-	=35-	=35-
1d	No-	.	.
!	!	!LO:TX:t=P:problem:kreska pseudotaktowa	!
.	.	2dd	-ſe-
!LO:TX:t=P:problem:kreska pseudotaktowa	!	!	!
1c	-biſ	1dd	-re-
=36	=36-	=36-	=36-
2B	.	2.ee	-re
4G	Mi-	.	.
!	!	!LO:TX:t=P:problem:kreska pseudotaktowa	!
4A/	.	4dd	.
4B	.	2cc	no-
4c	.	.	.
4d	.	2.dd	.
!LO:TX:t=P:problem:kreska pseudotaktowa	!	!	!
4B	-ſe-	.	.
=37	=37-	=37-	=37-
2c	-re-	.	.
.	.	4cc	.
1c	.	4dd	.
!	!	!LO:TX:t=P:problem:kreska pseudotaktowa	!
.	.	4b	.
.	.	4cc	.
.	.	4dd	.
!LO:TX:t=P:problem:kreska pseudotaktowa	!	!LO:TX:t=P:problem:kreska pseudotaktowa	!
2B	-re	(2.ee	.
=38	=38-	=38	=38-
1A	No-	.	.
.	.	4dd)	.
.	.	1cc	.
2.c	.	.	.
!	!	!LO:TX:t=P:problem:kreska pseudotaktowa	!
.	.	2b/	.
8BL	.	.	.
8AJ	.	.	.
=39-	=39-	=39-	=39-
0G	-biſ	0cc	-bis
=40-	=40-	=40-	=40-
!LO:PB:g=original	!	!LO:LB:g=original	!
0G;;	.	0dd	.
=41||-	=41||-	=41||-	=41||-
*M2/1	*	*M2/1	*
*met(c|)	*	*met(c|)	*
!	!	!LO:TX:t=Agnus 2dus	!
1.c	A-	00r	.
!LO:TX:t=P:problem:kreska pseudotaktowa	!	!	!
2d	.	.	.
=42	=42-	=42-	=42-
1c	-gnuſ	.	.
2B	De-	.	.
!LO:TX:t=P:problem:kreska pseudotaktowa	!	!	!
2G	.	.	.
=43	=43-	=43-	=43-
!	!	!LO:TX:t=P:problem:kreska pseudotaktowa	!
1G	.	1r	.
1A	.	1.cc	A-
=44-	=44-	=44-	=44-
!LO:TX:t=P:problem:kreska pseudotaktowa	!	!	!
1B	-i	.	.
!	!	!LO:TX:t=P:problem:kreska pseudotaktowa	!
.	.	2b/	-gnus
00r	.	2cc	De-
!	!	!LO:TX:t=P:problem:kreska pseudotaktowa	!
.	.	2a	.
=45-	=45-	=45	=45-
.	.	2b/	.
.	.	2.cc	.
.	.	4b/	.
.	.	4b/	.
.	.	8aL	.
!	!	!LO:TX:t=P:problem:kreska pseudotaktowa	!
.	.	8gJ	.
=46-	=46-	=46	=46-
!	!	!LO:PB:g=original	!
!	!	!LO:TX:t=P:problem:kreska pseudotaktowa	!
!	!	!LO:SIC:custos:b	!
.	.	1a	.
2B	Qui	2.b/	.
4G	.	.	.
!LO:TX:t=P:problem:kreska pseudotaktowa	!	!	!
4A/	.	4cc	.
=47	=47-	=47-	=47-
!	!	!LO:TX:t=P:problem:kreska pseudotaktowa	!
2B	tol-	1dd	-i
2d	.	.	.
2B	.	0r	.
!LO:TX:t=P:problem:kreska pseudotaktowa	!	!	!
2G	.	.	.
=48	=48-	=48-	=48-
2d	.	.	.
2.B	.	.	.
.	.	1r	.
4A/	.	.	.
4A/	.	.	.
8GL	.	.	.
!LO:TX:t=P:problem:kreska pseudotaktowa	!	!	!
8FJ	.	.	.
=49	=49-	=49-	=49-
2G	-liſ	2r	.
!LO:TX:t=P:problem:kreska pseudotaktowa	!	!LO:TX:t=P:problem:kreska pseudotaktowa	!
*	*	*	*ij
2E	pec-	2g	A-
1.A	-ca-	2b/	.
.	.	2a	.
=50-	=50-	=50-	=50-
.	.	2b/	.
!LO:LB:g=original	!	!	!
!LO:TX:t=P:problem:kreska pseudotaktowa	!	!LO:TX:t=P:problem:kreska pseudotaktowa	!
2G	-ta	2cc	.
2E	mun-	2dd	.
!LO:TX:t=P:problem:kreska pseudotaktowa	!	!	!
2A/	.	2.ee	.
=51	=51-	=51-	=51-
2.B	.	.	.
.	.	4dd	.
.	.	1dd	-gnus
8AL	.	.	.
!LO:TX:t=P:problem:kreska pseudotaktowa	!	!	!
8GJ	.	.	.
1G	.	.	.
!	!	!LO:TX:t=P:problem:kreska pseudotaktowa	!
.	.	2cc	De-
=52-	=52-	=52	=52-
!	!	!LO:TX:t=P:problem:kreska pseudotaktowa	!
2A/	-di	1dd	-i
*	*	*	*Xij
!LO:TX:t=P:problem:kreska pseudotaktowa	!	!	!
2r	.	.	.
00r	.	00r	.
=53-	=53-	=53-	=53-
.	.	.	.
=54-	=54-	=54-	=54-
.	.	.	.
0r	.	0r	.
=55-	=55-	=55-	=55-
.	.	.	.
2r	.	2r	.
!	!	!LO:LB:g=original	!
!	!	!LO:TX:t=P:problem:kreska pseudotaktowa	!
!LO:TX:t=P:problem:kreska pseudotaktowa	!	!LO:SIC:custos:ee	!
2G	Qui	2dd	qui
=56	=56-	=56	=56-
1c	tol-	1ee	tol-
2d	.	2ff#X	-lis
!LO:TX:t=P:problem:kreska pseudotaktowa	!	!LO:TX:t=P:problem:kreska pseudotaktowa	!
2d	-liſ	2ff#	pec-
=57	=57-	=57	=57-
4B	(ca)-	2gg	-ca-
4A	.	.	.
!LO:TX:t=P:problem:kreska pseudotaktowa	!	!	!
2G	-ta	2gg	-ta
!	!	!LO:TX:t=P:problem:kreska pseudotaktowa	!
1c	mun-	1ee	mu(n)-
=58-	=58-	=58	=58-
2B	-di	2dd	.
!LO:TX:t=P:problem:kreska pseudotaktowa	!	!	!
2r	.	1cc	.
00r	.	.	.
!	!	!LO:TX:t=P:problem:kreska pseudotaktowa	!
.	.	2b/	.
=59-	=59-	=59	=59-
!	!	!LO:TX:t=P:problem:kreska pseudotaktowa	!
.	.	1cc	-di
.	.	1r	.
=60-	=60-	=60-	=60-
*	*	*	*ij
.	.	1gg	qui
!	!	!LO:TX:t=P:problem:kreska pseudotaktowa	!
00r	.	1cc	tol-
=61-	=61-	=61	=61-
.	.	2dd	-lis
!	!	!LO:TX:t=P:problem:kreska pseudotaktowa	!
.	.	2dd	pec-
.	.	2ee	-ca-
!	!	!LO:TX:t=P:problem:kreska pseudotaktowa	!
.	.	2ee	-ta
=62-	=62-	=62	=62-
.	.	2cc	mu(n)-
!	!	!LO:LB:g=original	!
!	!	!LO:TX:t=P:problem:kreska pseudotaktowa	!
!	!	!LO:SIC:custos:dd	!
.	.	2cc	-di
2r	.	2r	.
!LO:TX:t=P:problem:kreska pseudotaktowa	!	!LO:TX:t=P:problem:kreska pseudotaktowa	!
2G	Qui	2dd	qui
=63	=63-	=63	=63-
1c	tol-	1ee	tol-
2d	-liſ	2ff#X	-lis
!LO:TX:t=P:problem:kreska pseudotaktowa	!	!LO:TX:t=P:problem:kreska pseudotaktowa	!
2d	pec-	2ff#	pec-
=64	=64-	=64	=64-
2G	-ca-	2gg	-ca-
!LO:LB:g=original	!	!	!
!LO:TX:t=P:problem:kreska pseudotaktowa	!	!LO:TX:t=P:problem:kreska pseudotaktowa	!
2C	-ta	2ee	-ta
2F	mun-	1dd	mu(n)-
!LO:TX:t=P:problem:kreska pseudotaktowa	!	!	!
2G	-di	.	.
=65	=65-	=65-	=65-
!	!	!LO:TX:t=P:problem:kreska pseudotaktowa	!
2C	Qui	1cc	-di
*	*	*	*Xij
!LO:TX:t=P:problem:kreska pseudotaktowa	!	!	!
2G	tol-	.	.
1G	-liſ	0r	.
=66-	=66-	=66-	=66-
1c	pec-	.	.
!LO:TX:t=P:problem:kreska pseudotaktowa	!	!	!
1B	-(ca)-	1.ee	do-
=67	=67-	=67-	=67-
2G	-ta	.	.
!	!	!LO:TX:t=P:problem:kreska pseudotaktowa	!
1c	mun-	2dd	-na
.	.	2cc	no-
!LO:TX:t=P:problem:kreska pseudotaktowa	!	!	!
2c	.	2b/	-bis
=68	=68-	=68-	=68-
!LO:TX:t=P:problem:kreska pseudotaktowa	!	!	!
1d	-di	1a	pa-
!	!	!LO:TX:t=P:problem:kreska pseudotaktowa	!
0r	.	0g	-cem
=69-	=69-	=69	=69-
.	.	.	.
1.e	Do-	1r	.
=70-	=70-	=70-	=70-
!LO:TX:t=P:problem:kreska pseudotaktowa	!	!	!
.	.	0ryy	.
2d	-na	.	.
!LO:TX:t=P:problem:kreska pseudotaktowa	!	!	!
2c	No-	.	.
2B	-biſ	.	.
=71-	=71-	=71-	=71-
1A	pa-	2r	.
*	*	*	*ij
.	.	1cc	do-
!LO:TX:t=P:problem:kreska pseudotaktowa	!	!	!
1G	-ce(m)	.	.
!	!	!LO:LB:g=original	!
!	!	!LO:TX:t=P:problem:kreska pseudotaktowa	!
!	!	!LO:SIC:custos:a	!
.	.	2b/	-na
=72-	=72-	=72	=72-
00r	.	2a	no-
!	!	!LO:TX:t=P:problem:kreska pseudotaktowa	!
.	.	2cc	.
.	.	4dd	.
.	.	4ee	.
.	.	1ff	.
=73-	=73-	=73-	=73-
.	.	.	.
!	!	!LO:TX:t=P:problem:kreska pseudotaktowa	!
.	.	2ee	-bis
.	.	2dd	pa-
.	.	1cc	.
=74-	=74-	=74-	=74-
!LO:TX:t=P:problem:kreska pseudotaktowa	!	!	!
1r	.	.	.
!	!	!LO:TX:t=P:problem:kreska pseudotaktowa	!
.	.	2b/	.
1.c	Do-	2cc	-cem
.	.	1a	do-
=75-	=75-	=75-	=75-
.	.	.	.
!	!	!LO:TX:t=P:problem:kreska pseudotaktowa	!
4G	-na	2b/	-na
!LO:TX:t=P:problem:kreska pseudotaktowa	!	!	!
4B	.	.	.
2F	No-	2cc	no-
2G	-biſ	2cc	-bis
=76-	=76-	=76-	=76-
!	!	!LO:TX:t=P:problem:kreska pseudotaktowa	!
2d	pa-	1dd	pa-
!LO:LB:g=original	!	!	!
!LO:TX:t=P:problem:kreska pseudotaktowa	!	!	!
2B	.	.	.
!	!	!LO:TX:t=P:problem:kreska pseudotaktowa	!
2c	-ce(m)	1g	-cem
1G	do-	.	.
=77-	=77-	=77	=77-
.	.	0r	.
!LO:TX:t=P:problem:kreska pseudotaktowa	!	!	!
2d	-na	.	.
2c	.	.	.
2B	.	.	.
=78-	=78-	=78-	=78-
!	!	!LO:LB:g=original	!
!	!	!LO:TX:t=P:problem:kreska pseudotaktowa	!
!	!	!LO:SIC:custos:a	!
1d	No-	1r	.
1A	-biſ	1a	do-
=79-	=79-	=79-	=79-
!LO:TX:t=P:problem:kreska pseudotaktowa	!	!	!
0B	.	2b/	-na
!	!	!LO:TX:t=P:problem:kreska pseudotaktowa	!
.	.	2cc	no-
.	.	1dd	-bis
=80	=80-	=80-	=80-
1G	pa-	0ee	pa-
1c	-cem	.	.
=81-	=81-	=81-	=81-
0B;;	.	0dd	-cem
*	*	*	*Xij
==	==	==	==
*-	*-	*-	*-
!!!system-decoration: [(s1,s2)]
!!!RDF**kern: > = above
!!!RDF**kern: < = below
!!!ENC: Andrzej Gręziak
!!!END: 2021-06-30
